X: 650
T: Hai puojia
%%abc-version 2.0
%%abcx-abcm2ps-target-version 5.9.1 (29 Sep 2008)
%%abc-creator hum2abc beta
%%abcx-conversion-date 2013/10/02 07:52:30
%%abc-edited-by Helmut Schaffrath
%%humdrum-veritas 86790108
%%humdrum-veritas-data 1984640003
%%continueall 1
%%barnumbers 0
L: 1/8
M: 2/4
K: A
B B B e [I:setbarnb 1]| 
d cB2 | 
e G B c | 
G FE2 | 
BB2e | 
G FE2 | 
G F E B, | 
E4 |]  



